components/img/rewards/contribute_disabled.svg

<?xml version="1.0" encoding="UTF-8"?>
<svg width="104px" height="77px" viewBox="0 0 104 77" version="1.1" xmlns="http://www.w3.org/2000/svg" xmlns:xlink="http://www.w3.org/1999/xlink">
    <!-- Generator: Sketch 50.2 (55047) - http://www.bohemiancoding.com/sketch -->
    <title>img-contribute</title>
    <desc>Created with Sketch.</desc>
    <defs></defs>
    <g id="settings" stroke="none" stroke-width="1" fill="none" fill-rule="evenodd">
        <g id="3-contribute-container" transform="translate(-195.000000, -288.000000)">
            <g id="1:-initial-state" transform="translate(98.000000, 116.000000)">
                <g id="blankslate-graphics" transform="translate(97.000000, 171.000000)">
                    <g id="img-contribute" transform="translate(0.000000, 1.000000)">
                        <path d="M76.8627451,50 L86.6617581,43.5857995 C89.8077922,41.5269723 93.4581466,45.2799418 91.8372946,48.869519 C91.0994326,48.8385671 90.4671704,48.8998392 89.7644448,49.0105923 L83.3241931,49.5045592 L76.8627451,50 Z M29.3989668,63.0217904 L3.08490649,73.9872061 C3.06486517,73.9954992 3.01252424,74.0174166 2.9473413,73.9731869 C2.88235294,73.9289572 2.88235294,73.8711031 2.88235294,73.8495806 L2.88235294,43.0287734 C2.88235294,42.7404905 3.05202316,42.4832078 3.31470067,42.3736207 L18.4519301,36.0481788 C18.5367652,36.0126371 18.6169305,36 18.6881453,36 C18.7918543,36 18.876884,36.0266563 18.929614,36.0491661 C19.0189244,36.0868798 19.1815899,36.1816578 19.2672033,36.3929336 C23.9463654,47.9246477 25.2924417,51.2412842 29.7373344,62.1952476 C29.868284,62.5182825 29.715931,62.8892987 29.3989668,63.0217904 Z M97.8520471,54.0245497 C97.8489846,54.0088194 97.8457307,53.9930891 97.8422854,53.977558 C97.3476917,51.7639685 96.073883,50.1728204 94.2580118,49.343695 C96.365969,43.4078026 90.078082,37.8420697 84.7497146,41.1324867 C70.8587882,49.7106686 71.4481281,49.2415477 70.5994327,50.185763 L69.3535694,50.2759633 C69.6638389,48.2843898 69.206378,45.7755091 66.5184599,43.8711491 C55.934268,36.370193 54.0514047,34.719907 50.844967,33.9991015 C41.4409861,31.8643626 39.5018493,31.4977872 34.1935796,32.6208101 C30.1784505,33.4702454 26.1434152,34.7087564 22.1782431,36.3012983 L21.6436455,34.9506842 C20.9101767,33.0976965 18.8747625,32.2152077 17.0935359,32.9786242 L2.20308603,39.357354 C0.864773474,39.9308125 0,41.2744575 0,42.7801842 L0,73.8606371 C0,76.0995145 2.18662509,77.6058386 4.16098065,76.762775 L30.0479114,65.7043852 C31.8249271,64.943159 32.6753451,62.8197697 31.943599,60.9709635 L31.9434076,60.9709635 L31.4319701,59.6788899 L32.9938452,59.0098551 C36.0151929,57.7153921 39.7300056,58.2968152 42.9310839,60.5647638 C51.9380882,66.9482724 52.0533147,67.2359972 54.3586117,68.1180878 C55.1033734,68.4028259 55.9275688,68.0059847 56.2014712,67.2320149 C56.4751821,66.4580451 56.0937094,65.5996494 55.3497133,65.3149114 C53.614807,64.6510536 53.7151039,64.5937077 44.5473183,58.096503 C40.5452049,55.2610695 35.8178531,54.5703308 31.900724,56.2480951 L30.338849,56.9171299 C30.120263,56.3651762 25.4311925,44.5196749 23.2704072,39.0612663 C27.0671418,37.5402075 30.9274232,36.3602371 34.7653101,35.548435 C38.7513454,34.7051723 40.8652361,34.6107906 50.2060529,36.9121909 C52.9289984,37.5873984 54.1019359,38.6865271 64.9018426,46.3402063 C66.5268817,47.491703 67.0832997,49.2270122 66.0345849,51.1992712 C65.9149559,51.4238758 64.8055653,53.3634795 62.7012449,52.2826696 C59.3443619,50.5591084 51.3387952,46.4895445 51.2584045,46.4485263 C50.5454162,46.0865306 49.6860021,46.393769 49.3384084,47.1348844 C48.9904318,47.8759998 49.2855802,48.7700375 49.9978029,49.1322322 C50.078385,49.1730513 58.0787837,53.2400267 61.4306901,54.9608003 C64.0663543,56.3138038 66.5802841,55.3679956 68.0864599,53.3620857 C97.750219,51.215798 89.4318944,51.7263353 92.1284258,51.7577959 C93.4462579,51.9987281 94.6174728,52.7764811 95.0399064,54.6304643 C95.687051,58.1012818 92.2666211,59.2724911 91.4709453,59.4957018 L61.9147566,65.6725264 C61.1374557,65.8350063 60.6340573,66.6221179 60.7900534,67.4307341 C60.9271003,68.1401899 61.5262018,68.6302181 62.1961237,68.6302181 C62.2897214,68.6302181 62.3848503,68.6206604 62.480362,68.6007487 C62.5433347,68.5876069 92.0979922,62.4123753 92.1600078,62.3956494 C94.734422,61.6953531 98.8301331,59.1446576 97.8520471,54.0245497 Z" id="Fill-3" fill="#E3AFD8"></path>
                        <path d="M57.3503543,15.6017943 C60.8876663,12.0409438 66.8147376,12.8476415 69.2871967,17.2213215 C69.6075064,17.7881437 70.7555472,18.8293209 72.1970628,18.7957187 C73.3502265,18.7687389 74.3823898,18.0741302 74.9488476,17.1600036 C76.0515132,15.378352 77.3905688,14.4254726 78.5791056,13.9204587 C81.2159888,18.612501 86.8395831,22.1838981 88.9648977,22.8846386 C88.3842907,27.922023 85.5049186,32.656252 80.3845985,36.9823493 C77.0424485,39.8061591 73.7042017,41.6140548 72.1250968,42.3930368 C63.8514459,38.3688686 55.1450232,30.6921184 55.1350211,20.9835398 C55.1330695,18.953183 55.9198165,17.0420281 57.3503543,15.6017943 Z M73.3436398,45.8864377 C74.8559017,45.1650944 78.7984189,43.1276247 82.7389846,39.798801 C89.1246867,34.4038108 92.4775706,28.3294188 92.7183517,21.7299007 C96.0380581,19.7856342 98.3623997,16.8348809 100.56289,14.4296422 C103.065597,11.6940663 104.128774,7.44135996 103.065597,8.50453653 C102.002421,9.56771311 99.8760677,5.3150068 98.8128911,10.6308897 C97.3745742,13.5075235 92.6634624,17.6647722 89.7187111,19.1859456 C85.1448447,16.8745077 80.4751049,12.6080113 80.4699819,7.42321879 C80.4663226,3.58987176 85.5361446,2.29115959 87.3970147,5.58270205 C88.3128126,7.20149343 90.8750462,7.4325391 92.0233309,5.57240065 C93.7531985,2.77753282 97.9592237,3.09311266 98.5441827,5.7178466 C99.8760677,11.6940663 98.8128911,10.9902344 98.8128911,9.56771311 C98.8128911,6.37818338 102.424269,9.31292699 103.065597,8.50453653 C103.721502,7.67777357 102.977577,5.7587914 101.800217,4.03798265 C98.8413842,-0.28659616 93.1484401,-1.44309778 89.714076,2.53790264 C84.9465112,-2.95862989 74.7556372,0.890905052 77.2029692,10.5102049 C75.5245757,11.2089832 73.6566309,12.4843945 72.1065564,14.8049075 C68.2482028,8.84677411 59.8459889,7.88334797 54.7615297,13.0019172 C52.6401183,15.1377408 51.4730493,17.9730784 51.4757328,20.9867283 C51.4874425,32.5512758 61.5258462,41.4332897 70.9180196,45.8901167 C71.6954964,46.2582691 72.586655,46.2479677 73.3436398,45.8864377 Z" id="Fill-1" fill="#FF8D71"></path>
                    </g>
                </g>
            </g>
        </g>
    </g>
</svg>

<svg width="104" height="77" xmlns="http://www.w3.org/2000/svg"><g fill="none" fill-rule="evenodd"><path d="M76.863 50l9.799-6.414c3.146-2.059 6.796 1.694 5.175 5.284-.738-.031-1.37.03-2.073.14l-6.44.495-6.461.495zM29.399 63.022L3.085 73.987c-.02.008-.072.03-.138-.014-.065-.044-.065-.102-.065-.123V43.029c0-.289.17-.546.433-.655l15.137-6.326a.607.607 0 0 1 .478.001c.089.038.252.133.337.344l10.47 25.802a.638.638 0 0 1-.338.827zm68.453-8.997a1.849 1.849 0 0 0-.01-.047c-.494-2.214-1.768-3.805-3.584-4.634 2.108-5.936-4.18-11.502-9.508-8.212-13.891 8.579-13.302 8.11-14.15 9.054l-1.246.09c.31-1.992-.148-4.5-2.836-6.405-10.584-7.5-12.467-9.151-15.673-9.872-9.404-2.135-11.343-2.501-16.651-1.378a72.718 72.718 0 0 0-12.016 3.68l-.534-1.35c-.734-1.853-2.77-2.736-4.55-1.972l-14.89 6.378C.863 39.931 0 41.274 0 42.78v31.08c0 2.24 2.187 3.746 4.161 2.903l25.887-11.059c1.777-.76 2.627-2.884 1.896-4.733l-.512-1.292 1.562-.67c3.021-1.294 6.736-.712 9.937 1.556 9.007 6.383 9.122 6.671 11.428 7.553.744.285 1.569-.112 1.842-.886.274-.774-.107-1.632-.851-1.917-1.735-.664-1.635-.721-10.803-7.218-4.002-2.836-8.73-3.527-12.646-1.849l-1.562.67L23.27 39.06a69.883 69.883 0 0 1 11.495-3.513c3.986-.843 6.1-.937 15.441 1.364 2.723.675 3.896 1.775 14.696 9.428 1.625 1.152 2.181 2.887 1.133 4.86-.12.224-1.23 2.163-3.334 1.083-3.357-1.724-11.362-5.793-11.443-5.834-.713-.362-1.572-.055-1.92.686-.348.741-.052 1.635.66 1.997.08.041 8.08 4.108 11.433 5.829 2.635 1.353 5.15.407 6.655-1.599 29.664-2.146 21.346-1.636 24.042-1.604 1.318.24 2.49 1.018 2.912 2.872.647 3.471-2.773 4.642-3.57 4.866l-29.555 6.177c-.778.162-1.28.95-1.125 1.758.137.71.736 1.2 1.406 1.2.094 0 .189-.01.284-.03.063-.013 29.618-6.189 29.68-6.205 2.574-.7 6.67-3.251 5.692-8.371z" fill="#E3AFD8"/><path d="M57.35 15.602c3.538-3.561 9.465-2.754 11.937 1.62.32.566 1.469 1.607 2.91 1.574 1.153-.027 2.185-.722 2.752-1.636 1.103-1.782 2.442-2.735 3.63-3.24 2.637 4.693 8.26 8.264 10.386 8.965-.58 5.037-3.46 9.771-8.58 14.097a42.112 42.112 0 0 1-8.26 5.411c-8.274-4.024-16.98-11.7-16.99-21.41a7.578 7.578 0 0 1 2.215-5.381zm15.994 30.284c1.512-.72 5.454-2.758 9.395-6.087 6.386-5.395 9.739-11.47 9.98-18.07 3.32-1.943 5.643-4.894 7.844-7.3 2.503-2.735 3.566-6.988 2.503-5.924-1.064 1.063-3.19-3.19-4.253 2.126-1.438 2.877-6.15 7.034-9.094 8.555-4.574-2.311-9.244-6.578-9.249-11.763-.004-3.833 5.066-5.132 6.927-1.84.916 1.618 3.478 1.85 4.626-.01 1.73-2.795 5.936-2.48 6.521.145 1.332 5.976.269 5.272.269 3.85 0-3.19 3.611-.255 4.253-1.063.656-.827-.088-2.746-1.266-4.467-2.959-4.325-8.652-5.481-12.086-1.5C84.947-2.96 74.756.89 77.203 10.51c-1.678.699-3.546 1.974-5.096 4.295-3.859-5.958-12.261-6.922-17.345-1.803a11.244 11.244 0 0 0-3.286 7.985c.011 11.564 10.05 20.446 19.442 24.903a2.824 2.824 0 0 0 2.426-.004z" fill="#FF8D71"/></g></svg>
